X:1114
M:C
L:1/8
Q:1/4=80 "Slow"
K:B Minor
f<f e>f A>B {B}d2 |c>B f>e Tc>B B2:|
a>f f>e d>e    F2 |d>d e>e  a>f f>e|
f<B d>A F>E    E2 |F<F d>e  c>B ce |
f>f e>f B2     A>B|d<c f>e Tc>B B2:|

